icons/op-calendar2-24.svg

<svg width="24" height="24" viewBox="0 0 24 24" fill="none" xmlns="http://www.w3.org/2000/svg">
<path d="M8.46667 12.25L7.2 12.5312L6.8 11.0312L9 10.4688H10.5V17.5H8.46667V12.25ZM15.7 12.125H12.2333V10.5H18V11.9688L14.7 17.5H12.4L15.7 12.125ZM17.8667 6V4H14.6667V6H9.33333V4H6.13333V6H4V20H20V6H17.8667ZM15.7333 5H16.8V7H15.7333V5ZM7.2 5H8.26667V7H7.2V5ZM18.9333 19H5.06667V9H18.9333V19Z" fill="black"/>
</svg>

<svg xmlns="http://www.w3.org/2000/svg" width="24" height="24" viewBox="0 0 24 24"><path d="m8.467 12.25-1.267.281-.4-1.5 2.2-.562h1.5V17.5H8.467v-5.25Zm7.233-.125h-3.467V10.5H18v1.469L14.7 17.5h-2.3l3.3-5.375ZM17.867 6V4h-3.2v2H9.333V4h-3.2v2H4v14h16V6h-2.133Zm-2.134-1H16.8v2h-1.067V5ZM7.2 5h1.067v2H7.2V5Zm11.733 14H5.067V9h13.866v10Z"/></svg>
